X: 29726
T: Nut Brown Maiden
R: polka
M: 2/4
K: Dmajor
A/B/|d>c BA|d2 A>B|d>e fg|fe eg|
fa fa|A2 d>e|f2 ge|d2 d:|
g|fa fa|A2 d>e|fd gf|fe eg|
[1fa fa|A2 d>e|f2 ge|d2 d:|
[2fa B<d|A>B d>e|f2 ge|d2 d||

